X: 41788
T: Veleta, The
R: waltz
M: 3/4
K: Gmajor
D4G2|A4G2|G4F2|d6|
D4A2|B4A2|A4G2|d6|
d4B2|^G4E2|A4=c2|e6|
e4d2|B4=G2|ddd2d2|G4z2|
^cdd2d2|^cdd2d2-|dgf3e|f6|
^dee2e2|^dee2e2-|egf3e|=d6|
^cdd2d2|^cdd2d2-|dgf2e2|a6|
age2e2|fed2d2|ed=c2F2|G6||

